X: 8
T: Contentment Is Wealth
R: jig
M: 6/8
L: 1/8
K: Edor
f||:~g3 edB|BAB EFG|~F3 DFA|dAF AFD|
~g3 edB|BAB EGA|BdB AGF|1 GED EGB:|2 GED E2||
B|~e3 Beg|bge gfe|dcd Adf|afd fed|
~e3 Beg|bge gfe|dcd AGF| GED ~E3|
~e3 Beg|bge gfe|dcd Adf|afd fed|
~g3 aga|bag fed|B/c/dB AGF| GED E2||


